!!!COM: Anon.
!!!OCL: Francis James Child
!!!OPR: The English and Scottish Popular Ballads
!!!OVM: Vol. 1
!!!ONB: Ballad No. 27, Tune No. 1
!!!ONM: No. 27
!!!PDT: 1882
!!!YEM: Public domain.
**kern
*M2/4
=1
{16g
16g
8g
8g
16g
16b
=2
8a
16a
16g
4e}
!! Second phrase:
=3
{4b
4b
=4
8b
16a
16b
8dd}
!! Third phrase:
{16g
16a
=5
8b
16dd
16b
8a
16a
16b
=6
8g
16g
16a
8b}
!! Fourth phrase:
{16b
16a
=7
16b
16dd
8r
16a
16b
8r
=8
16g
16a
8r
16b
16dd}
8r
!! Fifth phrase:
=9
{8d
8d
16d
16e
8g
=10
8d
8d
8e
8d}
====
*-
!!!OCY: Britain; England
!!!PPP: Boston
!!!ODT: <1882
!!!AFR: folk song
!!!AST: monophony
!!!AMT: simple duple
!!!SCA: Child Collection
!!!AIN: vox
!!!EEV: 1.0
!!!RDT: 1987 June
!!!YER: 1994 August 10
!!!VTS: 652652838
